src/components/buttons/CircleButton/img/chat.svg

<svg width="25" height="23" viewBox="0 0 25 23" fill="none" xmlns="http://www.w3.org/2000/svg">
<path d="M4.16667 9.61068H9.58333C9.81375 9.61068 10 9.42401 10 9.19401C10 8.96401 9.81375 8.77734 9.58333 8.77734H4.16667C3.93625 8.77734 3.75 8.96401 3.75 9.19401C3.75 9.42401 3.93625 9.61068 4.16667 9.61068Z" fill="white"/>
<path d="M15 11.2773H4.16667C3.93625 11.2773 3.75 11.464 3.75 11.694C3.75 11.924 3.93625 12.1107 4.16667 12.1107H15C15.2304 12.1107 15.4167 11.924 15.4167 11.694C15.4167 11.464 15.2304 11.2773 15 11.2773Z" fill="white"/>
<path d="M15 13.7773H4.16667C3.93625 13.7773 3.75 13.964 3.75 14.194C3.75 14.424 3.93625 14.6107 4.16667 14.6107H15C15.2304 14.6107 15.4167 14.424 15.4167 14.194C15.4167 13.964 15.2304 13.7773 15 13.7773Z" fill="white"/>
<path d="M22.53 0.0565105L8.30417 0.0273438C6.94167 0.0273438 5.83333 1.13568 5.83333 2.49818V4.63318L2.47083 4.64026C1.10833 4.64026 0 5.74859 0 7.11109V15.9198C0 17.2823 1.10833 18.3903 2.47083 18.3903H5V22.5569C5 22.729 5.10583 22.8836 5.26667 22.9457C5.31542 22.9644 5.36625 22.9736 5.41667 22.9736C5.53167 22.9736 5.64458 22.9257 5.725 22.8373L9.76833 18.3894L16.6958 18.3611C18.0583 18.3611 19.1667 17.2528 19.1667 15.8907V15.8436L21.3583 18.2544C21.4387 18.3428 21.5517 18.3907 21.6667 18.3907C21.7171 18.3907 21.7679 18.3815 21.8167 18.3628C21.9775 18.3007 22.0833 18.1461 22.0833 17.974V13.8073H22.5292C23.8917 13.8073 25 12.699 25 11.3369V2.52734C25 1.16526 23.8921 0.0569272 22.53 0.0565105ZM18.3333 15.8903C18.3333 16.7932 17.5988 17.5273 16.6942 17.5273L9.58167 17.5565C9.465 17.5569 9.35333 17.6065 9.275 17.6928L5.83333 21.479V17.9732C5.83333 17.7432 5.64708 17.5565 5.41667 17.5565H2.47083C1.56792 17.5565 0.833333 16.8219 0.833333 15.9194V7.11068C0.833333 6.20776 1.56792 5.47318 2.47167 5.47318L6.25 5.46526C6.25042 5.46526 6.25042 5.46526 6.25083 5.46526L16.6958 5.44359C17.5987 5.44359 18.3333 6.17818 18.3333 7.08109V14.7648V15.8903ZM24.1667 11.3361C24.1667 12.239 23.4321 12.9732 22.5292 12.9732H21.6667C21.4362 12.9732 21.25 13.1598 21.25 13.3898V16.8957L19.1667 14.604V7.08151C19.1667 5.71901 18.0583 4.61068 16.695 4.61068L6.66667 4.63109V2.49776C6.66667 1.59484 7.40125 0.860261 8.30333 0.860261L22.5287 0.889427C22.5292 0.889427 22.5292 0.889427 22.5296 0.889427C23.4325 0.889427 24.1671 1.62401 24.1671 2.52693V11.3361H24.1667Z" fill="white"/>
</svg>

<svg width="25" height="23" fill="none" xmlns="http://www.w3.org/2000/svg"><path d="M4.167 9.61h5.416a.417.417 0 1 0 0-.833H4.167a.417.417 0 1 0 0 .834zM15 11.277H4.167a.417.417 0 1 0 0 .834H15a.417.417 0 1 0 0-.834zM15 13.777H4.167a.417.417 0 1 0 0 .834H15a.417.417 0 1 0 0-.834z" fill="#fff"/><path d="M22.53.057L8.304.027a2.474 2.474 0 0 0-2.47 2.471v2.135L2.47 4.64A2.474 2.474 0 0 0 0 7.111v8.809a2.473 2.473 0 0 0 2.47 2.47H5v4.167a.417.417 0 0 0 .725.28l4.043-4.448 6.928-.028a2.473 2.473 0 0 0 2.47-2.47v-.047l2.192 2.41a.417.417 0 0 0 .725-.28v-4.167h.446A2.473 2.473 0 0 0 25 11.337v-8.81a2.474 2.474 0 0 0-2.47-2.47zM18.333 15.89a1.64 1.64 0 0 1-1.639 1.637l-7.112.03a.417.417 0 0 0-.307.136l-3.442 3.786v-3.506a.417.417 0 0 0-.416-.416H2.47a1.64 1.64 0 0 1-1.638-1.638V7.111a1.64 1.64 0 0 1 1.639-1.638l3.778-.008 10.446-.021a1.64 1.64 0 0 1 1.637 1.637V15.89zm5.834-4.554c0 .903-.735 1.637-1.638 1.637h-.862a.416.416 0 0 0-.417.417v3.506l-2.083-2.292V7.082a2.474 2.474 0 0 0-2.472-2.471l-10.028.02V2.498A1.64 1.64 0 0 1 8.303.86L22.53.89a1.64 1.64 0 0 1 1.638 1.637v8.81z" fill="#fff"/></svg>
